X: 6
T: Brian O'Lynn
R: jig
M: 6/8
L: 1/8
K: Ador
AB|:cAd cAG|E3 GAB|cAd cAG|EAA A2B|
c3 cAG|E3 GAB|cde g/f/ed|cAG A2B:||
|:g3 ged|cAB c2d|e2a age|edc def|
g3 ged|cAB cde|=fed cAG|1EAA A2f:|2EAA A2B||


Tune 830	Setting 22821

